raws/icons/decors/search-icon.svg

<svg width="26" height="25" viewBox="0 0 26 25" fill="none" xmlns="http://www.w3.org/2000/svg">
<path d="M17.7131 17.5517L24 23.8215M20.4077 11.0616C20.4077 13.4954 19.438 15.8296 17.712 17.5506C15.9859 19.2716 13.6449 20.2384 11.2038 20.2384C8.76284 20.2384 6.4218 19.2716 4.69574 17.5506C2.96969 15.8296 2 13.4954 2 11.0616C2 8.62774 2.96969 6.29358 4.69574 4.57259C6.4218 2.85161 8.76284 1.88477 11.2038 1.88477C13.6449 1.88477 15.9859 2.85161 17.712 4.57259C19.438 6.29358 20.4077 8.62774 20.4077 11.0616Z" stroke="white" stroke-width="2.05263" stroke-miterlimit="10" stroke-linecap="round" stroke-linejoin="round"/>
</svg>

<svg width="26" height="25" fill="none" xmlns="http://www.w3.org/2000/svg"><path d="M17.713 17.552L24 23.822m-3.592-12.76c0 2.433-.97 4.768-2.696 6.489a9.218 9.218 0 01-6.508 2.687 9.218 9.218 0 01-6.508-2.687A9.163 9.163 0 012 11.06c0-2.433.97-4.767 2.696-6.488a9.218 9.218 0 016.508-2.688c2.44 0 4.782.967 6.508 2.688a9.163 9.163 0 012.696 6.489z" stroke="#fff" stroke-width="2.053" stroke-miterlimit="10" stroke-linecap="round" stroke-linejoin="round"/></svg>
